src/colors/color-manjaro/scalable/default-folder-open.svg

<?xml version="1.0" encoding="UTF-8" standalone="no"?>
<!-- Created with Inkscape (http://www.inkscape.org/) -->

<svg
   xmlns:dc="http://purl.org/dc/elements/1.1/"
   xmlns:cc="http://creativecommons.org/ns#"
   xmlns:rdf="http://www.w3.org/1999/02/22-rdf-syntax-ns#"
   xmlns:svg="http://www.w3.org/2000/svg"
   xmlns="http://www.w3.org/2000/svg"
   xmlns:xlink="http://www.w3.org/1999/xlink"
   xmlns:sodipodi="http://sodipodi.sourceforge.net/DTD/sodipodi-0.dtd"
   xmlns:inkscape="http://www.inkscape.org/namespaces/inkscape"
   width="64"
   height="64"
   viewBox="0 0 16.933333 16.933334"
   version="1.1"
   id="svg8"
   inkscape:version="0.92.4 (5da689c313, 2019-01-14)"
   sodipodi:docname="default-folder-open.svg">
  <defs
     id="defs2">
    <linearGradient
       inkscape:collect="always"
       id="linearGradient835">
      <stop
         style="stop-color:#000000;stop-opacity:1;"
         offset="0"
         id="stop831" />
      <stop
         style="stop-color:#000000;stop-opacity:0;"
         offset="1"
         id="stop833" />
    </linearGradient>
    <clipPath
       clipPathUnits="userSpaceOnUse"
       id="clipPath827">
      <rect
         ry="0.52915645"
         y="285.35831"
         x="0.52916664"
         height="9.5249939"
         width="15.875"
         id="rect829"
         style="opacity:1;fill:#4d4d4d;fill-opacity:1;stroke:none;stroke-width:0.25100571;stroke-miterlimit:4;stroke-dasharray:none;stroke-opacity:0.19607843;paint-order:markers stroke fill"
         transform="rotate(45)" />
    </clipPath>
    <linearGradient
       inkscape:collect="always"
       xlink:href="#linearGradient835"
       id="linearGradient837"
       x1="-197.10156"
       y1="217.68132"
       x2="-196.91447"
       y2="219.36513"
       gradientUnits="userSpaceOnUse" />
  </defs>
  <sodipodi:namedview
     id="base"
     pagecolor="#ffffff"
     bordercolor="#666666"
     borderopacity="1.0"
     inkscape:pageopacity="0.0"
     inkscape:pageshadow="2"
     inkscape:zoom="11.2"
     inkscape:cx="28.178102"
     inkscape:cy="31.180279"
     inkscape:document-units="mm"
     inkscape:current-layer="layer1"
     showgrid="true"
     units="px"
     inkscape:window-width="1920"
     inkscape:window-height="1017"
     inkscape:window-x="-8"
     inkscape:window-y="-8"
     inkscape:window-maximized="1">
    <inkscape:grid
       type="xygrid"
       id="grid3713" />
  </sodipodi:namedview>
  <metadata
     id="metadata5">
    <rdf:RDF>
      <cc:Work
         rdf:about="">
        <dc:format>image/svg+xml</dc:format>
        <dc:type
           rdf:resource="http://purl.org/dc/dcmitype/StillImage" />
        <dc:title />
      </cc:Work>
    </rdf:RDF>
  </metadata>
  <g
     inkscape:label="Layer 1"
     inkscape:groupmode="layer"
     id="layer1"
     transform="translate(0,-280.06663)">
    <path
       inkscape:connector-curvature="0"
       id="rect4538"
       d="m 3.4395833,282.44788 c -0.2931528,0 -0.3943929,0.26884 -0.5291667,0.52917 h -0.79375 c -0.2931605,0 -0.5291666,0.236 -0.5291666,0.52916 v 5.29167 c 0,0.29316 0.2360061,0.52917 0.5291666,0.52917 H 14.816666 c 0.293161,0 0.529167,-0.23601 0.529167,-0.52917 v -5.29167 c 0,-0.29316 -0.236006,-0.52916 -0.529167,-0.52916 H 7.6729166 c -0.1553681,-0.24859 -0.2360139,-0.52917 -0.5291667,-0.52917 z"
       style="opacity:1;fill:#4d4d4d;fill-opacity:1;stroke:none;stroke-width:0.26458332;stroke-miterlimit:4;stroke-dasharray:none;stroke-opacity:0.19607843;paint-order:markers stroke fill" />
    <path
       style="opacity:0.18;fill:#16a085;fill-opacity:1;stroke:none;stroke-width:0.26458332;stroke-miterlimit:4;stroke-dasharray:none;stroke-opacity:0.19607843;paint-order:markers stroke fill"
       d="m 3.4395833,282.44788 c -0.2931528,0 -0.3943929,0.26884 -0.5291667,0.52917 h -0.79375 c -0.2931605,0 -0.5291666,0.236 -0.5291666,0.52916 v 5.29167 c 0,0.29316 0.2360061,0.52917 0.5291666,0.52917 H 14.816666 c 0.293161,0 0.529167,-0.23601 0.529167,-0.52917 v -5.29167 c 0,-0.29316 -0.236006,-0.52916 -0.529167,-0.52916 H 7.6729166 c -0.1553681,-0.24859 -0.2360139,-0.52917 -0.5291667,-0.52917 z"
       id="path824"
       inkscape:connector-curvature="0" />
    <path
       style="opacity:1;fill:#ffffff;fill-opacity:1;stroke:#000000;stroke-width:1.00000001;stroke-miterlimit:4;stroke-dasharray:none;stroke-opacity:0.03921569;paint-order:stroke markers fill"
       d="M 32 13 L 23 22 L 28 22 L 28 31 C 28 31.55399 28.44601 32 29 32 L 35 32 C 35.55399 32 36 31.55399 36 31 L 36 22 L 41 22 L 32 13 z "
       transform="matrix(0.26458333,0,0,0.26458333,0,280.06663)"
       id="rect824-3" />
    <rect
       style="opacity:1;fill:#16a085;fill-opacity:1;stroke:none;stroke-width:0.2213663;stroke-miterlimit:4;stroke-dasharray:none;stroke-opacity:0.19607843;paint-order:markers stroke fill"
       id="rect822"
       width="15.875"
       height="7.4083338"
       x="0.52916664"
       y="287.47498"
       ry="0.52915442" />
    <path
       style="opacity:1;fill:#16a085;fill-opacity:1;stroke:none;stroke-width:0.13317069;stroke-miterlimit:4;stroke-dasharray:none;stroke-opacity:0.19607843;paint-order:markers stroke fill"
       d="m 8.4666727,286.68121 h 7.4083213 c 0.293161,0 0.529172,0.23601 0.529172,0.52917 v 3.96874 c 0,0.29316 -0.236011,0.52917 -0.529172,0.52917 H 6.1515685 c -0.2931617,0 -0.6768878,-0.27594 -0.5291727,-0.52917 L 7.9375,287.21038 c 0.1477151,-0.25323 0.236011,-0.52917 0.5291727,-0.52917 z"
       id="rect824"
       inkscape:connector-curvature="0"
       sodipodi:nodetypes="sssssssss" />
    <rect
       style="opacity:0.1;fill:url(#linearGradient837);fill-opacity:1;stroke:none;stroke-width:0.52916664;stroke-miterlimit:4;stroke-dasharray:none;stroke-opacity:0.03921569;paint-order:stroke markers fill"
       id="rect819"
       width="5.2916665"
       height="4.7624998"
       x="-199.58691"
       y="217.86841"
       ry="0.13229166"
       transform="rotate(-45)"
       clip-path="url(#clipPath827)" />
  </g>
</svg>

<svg width="64" height="64" version="1.1" viewBox="0 0 16.933 16.933" xmlns="http://www.w3.org/2000/svg">
 <defs>
  <clipPath id="b">
   <rect transform="rotate(45)" x=".52917" y="285.36" width="15.875" height="9.525" ry=".52916" fill="#4d4d4d" style="paint-order:markers stroke fill"/>
  </clipPath>
  <linearGradient id="a" x1="-197.1" x2="-196.91" y1="217.68" y2="219.37" gradientUnits="userSpaceOnUse">
   <stop offset="0"/>
   <stop stop-opacity="0" offset="1"/>
  </linearGradient>
 </defs>
 <g transform="translate(0 -280.07)">
  <path d="m3.4396 282.45c-0.29315 0-0.39439 0.26884-0.52917 0.52917h-0.79375c-0.29316 0-0.52917 0.236-0.52917 0.52916v5.2917c0 0.29316 0.23601 0.52917 0.52917 0.52917h12.7c0.29316 0 0.52917-0.23601 0.52917-0.52917v-5.2917c0-0.29316-0.23601-0.52916-0.52917-0.52916h-7.1437c-0.15537-0.24859-0.23601-0.52917-0.52917-0.52917z" fill="#16a085" style="paint-order:markers stroke fill"/>
  <path d="m3.4396 282.45c-0.29315 0-0.39439 0.26884-0.52917 0.52917h-0.79375c-0.29316 0-0.52917 0.236-0.52917 0.52916v5.2917c0 0.29316 0.23601 0.52917 0.52917 0.52917h12.7c0.29316 0 0.52917-0.23601 0.52917-0.52917v-5.2917c0-0.29316-0.23601-0.52916-0.52917-0.52916h-7.1437c-0.15537-0.24859-0.23601-0.52917-0.52917-0.52917z" opacity=".18" style="paint-order:markers stroke fill"/>
  <path transform="matrix(.26458 0 0 .26458 0 280.07)" d="m32 13-9 9h5v9c0 0.55399 0.44601 1 1 1h6c0.55399 0 1-0.44601 1-1v-9h5l-9-9z" fill="#fff" stroke="#000" stroke-opacity=".039216" style="paint-order:stroke markers fill"/>
  <rect x=".52917" y="287.47" width="15.875" height="7.4083" ry=".52915" fill="#16a085" style="paint-order:markers stroke fill"/>
  <path d="m8.4667 286.68h7.4083c0.29316 0 0.52917 0.23601 0.52917 0.52917v3.9687c0 0.29316-0.23601 0.52917-0.52917 0.52917h-9.7234c-0.29316 0-0.67689-0.27594-0.52917-0.52917l2.3151-3.9687c0.14772-0.25323 0.23601-0.52917 0.52917-0.52917z" fill="#16a085" style="paint-order:markers stroke fill"/>
  <rect transform="rotate(-45)" x="-199.59" y="217.87" width="5.2917" height="4.7625" ry=".13229" clip-path="url(#b)" fill="url(#a)" opacity=".1" style="paint-order:stroke markers fill"/>
 </g>
</svg>
